X: 315
T: A Port
R: reel
M: 4/4
K: Aminor
A,2 A,2 C2 C2|D2 D2 F4|E D EF GF ED|D4 D4|
DE FG AG GF|F4 F4|ED EF ED CG,|A,4 A,4:|
|:A,G, A,2 CD E2|DE D2 CD C2|A,G, A,2 CD C2|
C2 C2 D2 D2|EF GF ED C2|D2 A2 G2 F2|
E2 DC C2 G,2|A,2 C2 D2 E2|GE DC D2 C2|
E2 DC C2 A,2|C2 cc c2 c2|c2 B2 A2 G2|F4 F4|
FG A_B c2 BA|G2 F2 GF ED|D2 E2 FE DC|A,4 A,4:|
|:A,2 A,2 C2 C2|D2 D2 F4|ED EF GF ED|D4 D4|
DE FG AG GF|F4 F4|ED EF ED CG,|A,4 A,4:|

